client/resources/iconsets/breeze/src/svg/16x16/icon_signature.svg

<svg xmlns="http://www.w3.org/2000/svg" width="16" height="16" viewBox="0 0 16 16">
 <path style="fill:#6d6d70"
       d="M 9.5,2 C 9.3039014,1.9683079 9.1076404,2.0557053 9,2.2226562 L 1,14.216797 c -0.36979117,0.613281 0.5501307,1.167968 0.9199219,0.554687 L 9.9160156,2.7773438 C 10.147827,2.4403923 9.8990676,1.9828115 9.4902344,1.9941406 Z M 5.6894531,5.9511719 C 5.4176824,5.9603192 5.1497955,5.9893083 4.8867188,6.0429688 3.8577067,6.2528591 3.0813939,6.763774 2.5683594,7.4414062 2.0553249,8.1190385 1.7973847,8.9400736 1.6894531,9.7851562 1.5803598,10.639335 1.6193525,11.525823 1.7285156,12.353516 L 2.6484375,10.974609 C 3.3738288,8.2829326 3.5475239,8.2430773 4.8242188,7.7109375 L 5.9902344,5.9628906 C 5.8901815,5.9608267 5.7886341,5.9478336 5.6894531,5.9511719 Z M 8.1425781,6.3378906 6.6152344,8.6308594 C 6.8053814,8.8158706 6.9232961,8.9978333 6.9414062,9.1972656 6.9666189,9.4749112 6.8637927,9.8379808 6.6171875,10.25 6.1239771,11.074038 5.0918493,12.020417 4.0488281,12.759766 3.6061458,13.074536 3.9122296,13.770043 4.4433594,13.65625 8.3459238,12.812542 9.9183,12.639049 10.546875,12.671875 c 1.234606,0.173609 2.295009,0.719464 3.535156,2.603516 C 14.354886,15.690688 15.000808,15.496912 15,15 l 0,-4.449219 c 3.43e-4,-0.149586 -0.0663,-0.29147 -0.181641,-0.386719 0,0 -2.023498,-0.5560586 -3.979873,-1.6788263 C 9.8465901,7.9159838 9.2746355,6.6959927 8.1425781,6.3378906 Z m -4.8417969,7.2636714 -0.8339843,1.25 C 2.739445,14.961656 3.1,14.831452 3.1542969,14.470703 3.2107159,14.107828 3.248604,13.930435 3.3007812,13.601562 Z"
       />
</svg>

<svg xmlns="http://www.w3.org/2000/svg" width="16" height="16"><path d="M9.5 2a.5.5 0 0 0-.5.223L1 14.217c-.37.613.55 1.168.92.555L9.916 2.777a.5.5 0 0 0-.426-.783zM5.689 5.951a4.82 4.82 0 0 0-.803.092c-1.029.21-1.805.721-2.318 1.398s-.771 1.499-.879 2.344c-.109.854-.07 1.741.039 2.568l.92-1.379c.725-2.692.899-2.732 2.176-3.264L5.99 5.963l-.301-.012zm2.453.387L6.615 8.631c.19.185.308.367.326.566.025.278-.078.641-.324 1.053-.493.824-1.525 1.77-2.568 2.51-.443.315-.137 1.01.395.896 3.903-.844 5.475-1.017 6.104-.984 1.235.174 2.295.719 3.535 2.604.273.415.919.222.918-.275v-4.449a.5.5 0 0 0-.182-.387s-2.023-.556-3.98-1.679c-.992-.569-1.564-1.789-2.696-2.147zm-4.842 7.264l-.834 1.25c.273.11.633-.02.688-.381l.146-.869z" fill="#6d6d70"/></svg>
